app/assets/images/heroicon/outline/check-badge.svg

<svg width="24" height="24" viewBox="0 0 24 24" fill="none" xmlns="http://www.w3.org/2000/svg">
<path d="M14.5625 9.75C13.011 11.1194 11.8163 12.8838 11.1358 14.8858L9 12.75M21 12C21 13.2683 20.3704 14.3895 19.4067 15.0682C19.6081 16.2294 19.2604 17.4672 18.3637 18.3639C17.467 19.2606 16.2292 19.6083 15.068 19.4069C14.3893 20.3705 13.2682 21 12 21C10.7319 21 9.61072 20.3705 8.93204 19.407C7.77066 19.6086 6.53256 19.261 5.6357 18.3641C4.73886 17.4673 4.39125 16.2292 4.59286 15.0678C3.62941 14.3891 3 13.2681 3 12C3 10.7319 3.62946 9.61077 4.59298 8.93208C4.39147 7.77079 4.7391 6.53284 5.63587 5.63607C6.53265 4.73929 7.77063 4.39166 8.93194 4.59319C9.61061 3.62955 10.7318 3 12 3C13.2682 3 14.3893 3.6295 15.068 4.59307C16.2294 4.39145 17.4674 4.73906 18.3643 5.6359C19.2611 6.53274 19.6087 7.77081 19.4071 8.93218C20.3706 9.61087 21 10.7319 21 12Z" stroke="#0F172A" stroke-width="1.5" stroke-linecap="round" stroke-linejoin="round"/>
</svg>

<svg xmlns="http://www.w3.org/2000/svg" fill="none" viewBox="0 0 24 24" stroke-width="1.5" stroke="currentColor" aria-hidden="true">
  <path stroke-linecap="round" stroke-linejoin="round" d="M14.563 9.75a12.014 12.014 0 00-3.427 5.136L9 12.75M21 12c0 1.268-.63 2.39-1.593 3.068a3.745 3.745 0 01-1.043 3.296 3.745 3.745 0 01-3.296 1.043A3.745 3.745 0 0112 21c-1.268 0-2.39-.63-3.068-1.593a3.746 3.746 0 01-3.296-1.043 3.745 3.745 0 01-1.043-3.296A3.745 3.745 0 013 12c0-1.268.63-2.39 1.593-3.068a3.745 3.745 0 011.043-3.296 3.746 3.746 0 013.296-1.043A3.746 3.746 0 0112 3c1.268 0 2.39.63 3.068 1.593a3.746 3.746 0 013.296 1.043 3.746 3.746 0 011.043 3.296A3.745 3.745 0 0121 12z"/>
</svg>
